X:1
T:Oh! sweetest - Webbe
T:#
%%score 1 2 3 { 4 | 5 }
L:1/8
Q:1/4=90
M:4/4
K:F
V:1 treble nm="Soprano" snm="S"
V:2 treble nm="Alto" snm="A"
V:3 treble-8 nm="Tenor" snm="T"
V:4 bass nm="Bass I" snm="B"
V:5 bass 
V:1
"^andante""^Oh! sweetest of thy lovely race""^Samuel Webbe \n(1740-1816)" z4!p! c4 |: c4 c4 | B8 | %3
w: Oh!|sweet- est,|Oh!|
 B4 A4 | z8 | (A2 c2)"^cresc." f4- |[M:4/4] f4 F2 f2- | f2 (dB) G2 d2 | A4 TG4 | F2 A2 c4- | %10
w: sweet- est,||Oh! * sweet\-|* est, sweet\-|* est * of thy|love- ly|race, Un- veil|
 c2 (Td>c) c2 (de) | (f8- | fedc =B2) c2 | c2 c2 c2 T=B2 ||1 c6!p! c2 | A2 F2 c4 :|2 c8 || z8 | %18
w: * thy * match- less *|charms,|* * * * * un-|veil thy match- less|charms. Oh!|sweet- est, Oh!|charms.||
S z8 || z8 | z8 | z4!p! A4- |"^cresc." A2 ^c2 c2 Tc2 | d8 | z8 | z2 f2 (F>G A/B/) (c/d/) | %26
w: |||fold|* thee in my|arms.||Let me * * * a\- *|
 _e2 e2 f2 e2 | d6!p! d2 | (ce) (gf) (ed) (cB) | (Ac)!f! f2 (fd) (=Bd) | f2 =B2 B2 B2 | %31
w: dore that an- gel's|face And|fold * thee * in * my *|arms. * Thy bo\- * som *|let my tor- tures|
 (ce) (gf) (ed)[Q:1/4=90] (c[Q:1/4=90]B) | %32
w: move * To * grant * the *|
[Q:1/4=90][Q:1/4=90][Q:1/4=90][Q:1/4=90][Q:1/4=90] (A[Q:1/4=90]f)[Q:1/4=90] (G[Q:1/4=90]d)[Q:1/4=90] A2[Q:1/4=90] TG2 | %33
w: just * re\- * turns of|
[Q:1/4=60] !fermata!F4!fine! |][Q:1/4=90] z4 | z8 | z8"^al fine" |] %37
w: love.||||
V:2
 z4!p! F4 |: A4 G4 | z4 E4 | F4 F4 | z4 F4- | F4"^cresc." (A4- |[M:4/4] A2 F2) (F2 D2) | D4 G4 | %8
w: Oh!|sweet- est,|Oh!|sweet- est,|Oh!|* sweet\-|* * est, *|of thy|
 F4 TE4 | F8 | z8 | z4 C4 | F6 E2 | F2 F2 (EG) (GF) ||1 E8 | z4!p! F4 :|2 E8 || z2 ^F2 F2 F2 | %18
w: love- ly|race,||Un-|veil, un-|veil thy match\- * less *|charms.|Oh!|charms.|Let me a-|
 (GA) (G=F) E2 E2 || F3!p! F D2 D2 | E2 D2 (D2 ^C2) | z4!p! E4- |"^cresc." E2 E2 E2 E2 | F8 | z8 | %25
w: dore * that * an- gel's|face And fold thee|in my arms, *|fold|* thee in my|arms.||
 z2 F2 F2 F2 | _E2 C2 C2 C2 | D6!p! G2 | E2 E2 E2 E2 | F4 z!f! FFD | D2 D2 (DG) (GF) | %31
w: Let me a-|dore that an- gel's|face And|fold thee in my|arms. Thy bo- som|let my tor\- * tures *|
 E2 E2 E2 E2 | F2 F2 F2 TE2 | !fermata!F4 |] z4 | z2 ^F2 F2 F2 | (GA) (G=F) E2 E2 |] %37
w: move To grant the|just re- turns of|love.||Let me a-|dore * that * an- gel's|
V:3
!p! f8 |: f4 e4 | z4 c4 | c4 c4 | z2 c4 f2- | f2 c2"^cresc." c4- |[M:4/4][K:treble-8] c4 d4 | %7
w: Oh!|sweet- est,|Oh!|sweet- est,|Oh! sweet\-|* est, sweet\-|* est|
 B6 G2 | (A2 c4) B2 | A8 | z4 z2 B2 | A2 A2 c2 A2 | d2 d2 d2 c2 | c2 d2 e2 Td2 ||1 c8 |!p! f8 :|2 %16
w: of thy|love\- * ly|race,|Oh!|sweet- est of thy|love- ly race, Un-|veil thy match- less|charms.|Oh!|
 c2 c2 c2 c2 || A8 | z2 =B2 c2 G2 || A3!p! F F2 F2 | G2 (BG) (F2 E2) | z4!p! ^c4- | %22
w: charms. Let me a-|dore|that an- gel's|face And fold thee|in my * arms, *|fold|
"^cresc." c2 e2 ^c2 A2 | A8 | z2 =c2 (G>A B/c/) (d/e/) | f6 (fc) | c2 c2 c2 c2 | B6!p! d2 | %28
w: * thee in my|arms.|Let me * * * a\- *|dore, a\- *|dore that an- gel's|face And|
 e2 (ed) (cB) (AG) | F2 z!f! d =B2 B2 | (d=B) (GB) d2 d2 | (ec) (ed) (cB) (AG) | F2 d2 c2 c2 | %33
w: fold thee * in * my *|arms. Thy bo- som|let * my * tor- tures|move * To * grant * the *|just re- turns of|
 (c>A !fermata!F2) |] z ccc | (c3- c/4d/4c/4B/4 A4) | z2 =B2 c2 G2 |] %37
w: love. * *|Let me a-|dore * * * * *|that an- gel's|
V:4
 z4!p! A,4 |: F,4 G,4 | z4 G,4 | F,4 F,4 | A,8- | A,4"^cresc." F,4- |[M:4/4] F,4 F,4 | G,4 G,4 | %8
w: Oh!|sweet- est,|Oh!|sweet- est,|Oh!|* sweet\-|* est,|of thy|
 C,4 G,4 | A,8 | z2 (TB,>A,) A,2 G,2 | F,8- | F,4 z2 G,2 | A,2 A,2 G,2 G,2 ||1 G,8 | z4!p! A,4 :|2 %16
w: love- ly|race,|thy * match- less|charms,|* Un-|veil thy match- less|charms.|Oh!|
 G,2 C,2 C,2 C,2 || D,8 | z2 G,2 C,2 C,2 || F,3!p! A,, B,,2 B,,2 | G,,2 G,,2 A,,4 | z4!p! A,4- | %22
w: charms. Let me a-|dore|that an- gel's|face And fold thee|in my arms,|fold|
"^cresc." A,2 E,2 E,2 TE,2 | D,2 A,2 (D,>E, F,/G,/) (A,/=B,/) | C2 (C,>D,) (E,>F,) G,2 | %25
w: * thee in my|arms. Let me * * * a\- *|dore that * an\- * gel's|
 F,2 A,2 A,2 A,2 | G,2 A,2 F,2 F,2 | F,3!p! G, G,4- | G,2 G,2 G,2 G,2 | A,2 z!f! A, G,2 G,2 | %30
w: face, let me a-|dore that an- gel's|face And fold|* thee in my|arms. Thy bo- som|
 G,2 G,2 G,2 G,2 | G,2 G,2 G,2 G,2 | A,2 B,2 (F,C) (CB,) | !fermata!A,4 |] z4 | z2 A,2 A,2 A,2 | %36
w: let my tor- tures|move To grant the|just re- turns * of *|love.||Let me a-|
 G,2 G,2 C,2 C,2 |] %37
w: dore that an- gel's|
V:5
 z4!p! F,4 |: C,4 C,4 | z4 C,4 | F,4 F,,4 | F,8- | F,4"^cresc." F,4- |[M:4/4] F,4 D,4 | G,,4 B,,4 | %8
w: Oh!|sweet- est,|Oh!|sweet- est,|Oh!|* sweet\-|* est,|of thy|
 C,4 C,4 | F,8 | z4 z2 C,2 | F,2 F,2 (A,G,) (F,E,) | D,2 D,2 G,2 C,2 | F,2 D,2 G,2 G,,2 ||1 C,8 | %15
w: love- ly|race,|Oh!|sweet- est of * thy *|love- ly race, Un-|veil thy match- less|charms.|
 z4!p! F,4 :|2 C,8 || z8 | z8 || z8 | z8 | z4!p! A,,4- |"^cresc." A,,2 A,,2 A,,2 A,,2 | D,6 D,2 | %24
w: Oh!|charms.|||||fold|* thee in my|arms. Let|
 C,6 B,,2 | A,,6 F,2 | C,2 A,,2 A,,2 A,,2 | B,,6!p! B,,2 | C,2 C,2 C,2 C,2 | F,2 z!f! F, G,2 G,2 | %30
w: me a-|dore, a-|dore that an- gel's|face And|fold thee in my|arms. Thy bo- som|
 G,,2 G,,2 G,,2 G,,2 | C,2 C,2 C,2 C,2 | F,2 B,,2 C,2 C,2 | !fermata!F,4 |] F,2 _E,>E, | D,8 | %36
w: let my tor- tures|move To grant the|just re- turns of|love.|Let me a-|dore,|
 z8 |] %37
w: |

